svg/furkot/mapbox-maki/embassy.svg

<svg viewBox="0 0 512 512" xmlns="http://www.w3.org/2000/svg"><path d="m231.143 39.445c-48.122 0-85.595 54.435-100.19 71.79-2.899 3.558-4.438 8.036-4.339 12.623v173.559c-.458 9.574 6.934 17.707 16.507 18.165 4.32.206 8.56-1.207 11.893-3.965 18.402-24.708 45.713-41.262 76.129-46.15 55.618 0 76.919 50.096 134.903 50.096 39.24-3.851 76.584-18.761 107.686-42.997 5.017-3.684 7.952-9.553 7.889-15.777v-199.594c1.085-9.521-5.755-18.125-15.281-19.209-3.132-.356-6.307.149-9.175 1.459-26.875 20.559-58.007 34.846-91.119 41.813-57.984.788-76.918-41.813-134.903-41.813zm-163.698 39.446c-21.784 0-39.445-17.659-39.445-39.446 0-21.786 17.661-39.445 39.445-39.445 21.785 0 39.446 17.659 39.446 39.445 0 21.787-17.659 39.446-39.446 39.446zm19.724 39.445v373.941c0 10.891-8.832 19.723-19.724 19.723-10.891 0-19.722-8.832-19.722-19.723v-373.941c0-10.891 8.832-19.723 19.722-19.723s19.724 8.832 19.724 19.723z"/></svg>

<svg viewBox="0 0 512 512" xmlns="http://www.w3.org/2000/svg"><path d="M 231.143 39.445 C 183.021 39.445 145.548 93.88 130.953 111.235 C 128.054 114.793 126.515 119.271 126.614 123.858 L 126.614 297.417 C 126.156 306.991 133.548 315.124 143.121 315.582 C 147.441 315.788 151.681 314.375 155.014 311.617 C 173.416 286.909 200.727 270.355 231.143 265.467 C 286.761 265.467 308.062 315.563 366.046 315.563 C 405.286 311.712 442.63 296.802 473.732 272.566 C 478.749 268.882 481.684 263.013 481.621 256.789 L 481.621 57.195 C 482.706 47.674 475.866 39.07 466.34 37.986 C 463.208 37.63 460.033 38.135 457.165 39.445 C 430.29 60.004 399.158 74.291 366.046 81.258 C 308.062 82.046 289.128 39.445 231.143 39.445 Z M 67.445 78.891 C 45.661 78.891 28 61.232 28 39.445 C 28 17.659 45.661 0 67.445 0 C 89.23 0 106.891 17.659 106.891 39.445 C 106.891 61.232 89.232 78.891 67.445 78.891 Z M 87.169 118.336 L 87.169 492.277 C 87.169 503.168 78.337 512 67.445 512 C 56.554 512 47.723 503.168 47.723 492.277 L 47.723 118.336 C 47.723 107.445 56.555 98.613 67.445 98.613 C 78.335 98.613 87.169 107.445 87.169 118.336 Z"/></svg>
